Gruvbox-Plus-Dark/panel/16/tomahawk-indicator.svg

<svg width="16" height="16" version="1" xmlns="http://www.w3.org/2000/svg">
  <defs>
    <style id="current-color-scheme" type="text/css">.ColorScheme-Text { color:#ebdbb2; } .ColorScheme-Highlight { color:#458588; } .ColorScheme-NeutralText { color:#fe8019; } .ColorScheme-PositiveText { color:#689d6a; } .ColorScheme-NegativeText { color:#fb4934; }</style>
  </defs>
  <path class="ColorScheme-Text" d="m8 1a7 7 0 0 0-7 7 7 7 0 0 0 7 7 7 7 0 0 0 7-7 7 7 0 0 0-7-7zm0 2a5 5 0 0 1 5 5 5 5 0 0 1-1 2.99v-4.99h-2v2 4.576a5 5 0 0 1-2 0.4238 5 5 0 0 1-5-5 5 5 0 0 1 5-5zm2 5-5-3v3 3l5-3z" fill="currentColor"/>
</svg>

<svg xmlns="http://www.w3.org/2000/svg" width="16" height="16" version="1">
 <defs>
  <style id="current-color-scheme" type="text/css">
   .ColorScheme-Text { color:#ebdbb2; } .ColorScheme-Highlight { color:#458588; }
  </style>
 </defs>
 <path style="fill:currentColor" class="ColorScheme-Text" d="M 8 1 A 7 7 0 0 0 1 8 A 7 7 0 0 0 8 15 A 7 7 0 0 0 15 8 A 7 7 0 0 0 8 1 z M 8 3 A 5 5 0 0 1 13 8 A 5 5 0 0 1 12 10.990234 L 12 6 L 10 6 L 10 8 L 10 12.576172 A 5 5 0 0 1 8 13 A 5 5 0 0 1 3 8 A 5 5 0 0 1 8 3 z M 10 8 L 7.5 6.5 L 5 5 L 5 8 L 5 11 L 7.5 9.5 L 10 8 z"/>
</svg>
